X:1
T:Mach’s Mit Mir, LM
T:Johann Hermann Schein, 1628
T:Mach’s Mit Mir, LM
T:Public Domain
C:Johann Hermann Schein, 1628
Z:Public Domain
%%score ( 1 2 ) ( 3 4 )
L:1/8
M:none
K:D
V:1 treble 
V:2 treble 
V:3 bass 
V:4 bass 
V:1
 [A,D]4 x4 | [DF]4 [DF]2 [CA]4 [DA]2 [DG]2 [DF]2 | [CE]6 [EA]2 | %3
 [EB]2 [Ec]2 [Fd]2 [Ec]2 [EB]2 [EB]2 | [CA]8 [FA]4 | [Fd]4 [Ac]2 [GB]4 [FA]2 | %6
 [EG]2 [DF]2 [CE]4 [DA]4 | [DG]4 [DF]2 [CE]4 [E-G]2 | (E2 D2) z2 C2 | D8 |] x8 | x8 | x8 |] %13
V:2
 x8 | x16 | x8 | x12 | x12 | x12 | x12 | x12 | F4 E4 | D8 |] x8 | x8 | x8 |] %13
V:3
 [D,F,]4 [D,A,]4 | [B,,B,]2 [A,,E,]4 [D,F,]2 x8 | [G,B,]2 [D,A,]2 [A,,A,]4- | %3
 [A,,A,]2 [A,C]2 [^G,B,]2 A,2 x4 | [D,A,]2 [A,,A,]2 [E,A,]2 [E,^G,]2 x4 | [A,,A,]8 x4 | %6
 [D,A,]4 [B,,B,]4 x4 | [F,A,]2 [G,D]4 [D,D]2 x4 | [E,B,]2 (F,G,) A,4 | [F,A,]4 [G,B,]4 |] %10
 [D,A,]2 A,4 [E,B,]2 | (F,3 G,) A,2 A,,2 | [D,F,]8 |] %13
V:4
 x8 | x16 | x8 | x6 A,2 x4 | x12 | x12 | x12 | x12 | x2 A,2 A,4 | x8 |] x2 A,4 x2 | A,4 A,4 | x8 |] %13

